X: 0048
T: 412. Vals efter Anders Fogde
C: after Isak Anders Persson
%R: waltz
B: Paul B\"ackstr\"om's "L\aatar fr\aan Dalarna" collection" 1974
Z: 2022 John Chambers <jc:trillian.mit.edu>
M: 3/4
L: 1/8
Q: 3/4=66
K: G
% - - - - - - - - - -
ud2 | [d2D2] Bd Bd | g2 dB dB | (d<c) AF AF | [G2G,2] BA [GG,]>B | [d2D2] Bd Bd | g2 dB dB | (d<c) AF AF | [G2G,2] z2 :|
|: [B2D2] | g3 g g2 | g2 bb b2 | b2{c'b} a2 b2 | g3 g g2 | g2{ag} f2 [g2A2] | {e}a4 (a<<f) | df ag fa |
g2 bg d2 | g3 g g2 | g2 bb b2 | b2{c'b} a2 b2 | g3 g g2 | g2{ag} f2 [g2A2] | {e}a4 (a<<f) | (df) (ag) fa | g2 z2 :|
% - - - - - - - - - -
